X:42
T:Drunken Piper (r)
B:NFID.236a
042drunk_p
S:JMcK
N:I have replaced |(3EEE| with |~E2| in mm 1,2,5 and 6, and
|(3DDD| with |~D2| in mm 3 and 4.
L:1/8
M:C
R:reel
Q:360
K:Em
BE~E2 BEdE|BE~E2 BAFB|AD~D2 ADBD|AD~D2 (3B^cd cd|
BE~E2 BEdE|BE~E2 BAFE|DEFA B^cdB|AFDE FEE2:|
e2de feef|afed Bdd2|f2ef d2ef|dBAF EFGB|
e2de feef|dfaf bfaf|1 gbge fefA|dBAF EFGB:|\
[2 gbge fgfe|dBAF EFGA||

%%%

